packages/kaspersky-hexa-ui-icons/src/iconsSVGs/24/Abstract.svg

<svg width="24" height="24" viewBox="0 0 24 24" fill="none" xmlns="http://www.w3.org/2000/svg">
<path fill-rule="evenodd" clip-rule="evenodd" d="M13.301 2.74669C12.7211 1.7511 11.2789 1.75111 10.699 2.74669L7.20423 8.74669C6.61404 9.75994 7.36077 11 8.50519 11H15.4948C16.6392 11 17.386 9.75994 16.7958 8.74669L13.301 2.74669ZM9.37122 9L12 4.48683L14.6288 9H9.37122Z" fill="black"/>
<path fill-rule="evenodd" clip-rule="evenodd" d="M2 16.5001C2 14.0148 4.01472 12.0001 6.5 12.0001C8.98528 12.0001 11 14.0148 11 16.5001C11 18.9853 8.98528 21.0001 6.5 21.0001C4.01472 21.0001 2 18.9853 2 16.5001ZM6.5 14.0001C5.11929 14.0001 4 15.1193 4 16.5001C4 17.8808 5.11929 19.0001 6.5 19.0001C7.88071 19.0001 9 17.8808 9 16.5001C9 15.1193 7.88071 14.0001 6.5 14.0001Z" fill="black"/>
<path fill-rule="evenodd" clip-rule="evenodd" d="M13 15.0001C13 13.3432 14.3431 12.0001 16 12.0001H19C20.6569 12.0001 22 13.3432 22 15.0001V18.0001C22 19.6569 20.6569 21.0001 19 21.0001H16C14.3431 21.0001 13 19.6569 13 18.0001V15.0001ZM16 14.0001C15.4477 14.0001 15 14.4478 15 15.0001V18.0001C15 18.5523 15.4477 19.0001 16 19.0001H19C19.5523 19.0001 20 18.5523 20 18.0001V15.0001C20 14.4478 19.5523 14.0001 19 14.0001H16Z" fill="black"/>
</svg>

<svg xmlns="http://www.w3.org/2000/svg" width="24" height="24" fill="none" viewBox="0 0 24 24"><path fill="#000" fill-rule="evenodd" d="M13.301 2.7467c-.5799-.9956-2.0221-.9956-2.602 0l-3.4948 6C6.614 9.7599 7.3608 11 8.5052 11h6.9896c1.1444 0 1.8912-1.24 1.301-2.2533zM9.3712 9 12 4.4868 14.6288 9zM16 12.0001c-1.6569 0-3 1.3431-3 3v3c0 1.6568 1.3431 3 3 3h3c1.6569 0 3-1.3432 3-3v-3c0-1.6569-1.3431-3-3-3zm-14 4.5c0-2.4853 2.0147-4.5 4.5-4.5s4.5 2.0147 4.5 4.5c0 2.4852-2.0147 4.5-4.5 4.5s-4.5-2.0148-4.5-4.5m13-1.5c0-.5523.4477-1 1-1h3c.5523 0 1 .4477 1 1v3c0 .5522-.4477 1-1 1h-3c-.5523 0-1-.4478-1-1zm-8.5-1c-1.3807 0-2.5 1.1193-2.5 2.5s1.1193 2.5 2.5 2.5 2.5-1.1193 2.5-2.5-1.1193-2.5-2.5-2.5"/></svg>
